X:1
T:Agnus Dei
T:Fux edit BMarble
T:Agnus Dei
T:Copyright © 2016 by The Choral Public Domain Library. Edition may be freely distributed, duplicated, performed or recorded.
T:Copyright © 2016 by The Choral Public Domain Library. Edition may be freely distributed, duplicated, performed or recorded.
T:Copyright © 2016 by The Choral Public Domain Library. Edition may be freely distributed, duplicated, performed or recorded.
T:Copyright © 2016 by The Choral Public Domain Library. Edition may be freely distributed, duplicated, performed or recorded.
T:Copyright © 2016 by The Choral Public Domain Library. Edition may be freely distributed, duplicated, performed or recorded.
T:Copyright © 2016 by The Choral Public Domain Library. Edition may be freely distributed, duplicated, performed or recorded.
T:Copyright © 2016 by The Choral Public Domain Library. Edition may be freely distributed, duplicated, performed or recorded.
T:Copyright © 2016 by The Choral Public Domain Library. Edition may be freely distributed, duplicated, performed or recorded.
T:Copyright © 2016 by The Choral Public Domain Library. Edition may be freely distributed, duplicated, performed or recorded.
T:Copyright © 2016 by The Choral Public Domain Library. Edition may be freely distributed, duplicated, performed or recorded.
T:Copyright © 2016 by The Choral Public Domain Library. Edition may be freely distributed, duplicated, performed or recorded.
T:Copyright © 2016 by The Choral Public Domain Library. Edition may be freely distributed, duplicated, performed or recorded.
T:Copyright © 2016 by The Choral Public Domain Library. Edition may be freely distributed, duplicated, performed or recorded.
T:Copyright © 2016 by The Choral Public Domain Library. Edition may be freely distributed, duplicated, performed or recorded.
T:Copyright © 2016 by The Choral Public Domain Library. Edition may be freely distributed, duplicated, performed or recorded.
T:Copyright © 2016 by The Choral Public Domain Library. Edition may be freely distributed, duplicated, performed or recorded.
T:Copyright © 2016 by The Choral Public Domain Library. Edition may be freely distributed, duplicated, performed or recorded.
T:Copyright © 2016 by The Choral Public Domain Library. Edition may be freely distributed, duplicated, performed or recorded.
T:Copyright © 2016 by The Choral Public Domain Library. Edition may be freely distributed, duplicated, performed or recorded.
T:Copyright © 2016 by The Choral Public Domain Library. Edition may be freely distributed, duplicated, performed or recorded.
T:Copyright © 2016 by The Choral Public Domain Library. Edition may be freely distributed, duplicated, performed or recorded.
T:Copyright © 2016 by The Choral Public Domain Library. Edition may be freely distributed, duplicated, performed or recorded.
T:Copyright © 2016 by The Choral Public Domain Library. Edition may be freely distributed, duplicated, performed or recorded.
T:Copyright © 2016 by The Choral Public Domain Library. Edition may be freely distributed, duplicated, performed or recorded.
T:Copyright © 2016 by The Choral Public Domain Library. Edition may be freely distributed, duplicated, performed or recorded.
T:Copyright © 2016 by The Choral Public Domain Library. Edition may be freely distributed, duplicated, performed or recorded.
T:Copyright © 2016 by The Choral Public Domain Library. Edition may be freely distributed, duplicated, performed or recorded.
T:Copyright © 2016 by The Choral Public Domain Library. Edition may be freely distributed, duplicated, performed or recorded.
T:Copyright © 2016 by The Choral Public Domain Library. Edition may be freely distributed, duplicated, performed or recorded.
T:Copyright © 2016 by The Choral Public Domain Library. Edition may be freely distributed, duplicated, performed or recorded.
T:Copyright © 2016 by The Choral Public Domain Library. Edition may be freely distributed, duplicated, performed or recorded.
T:Copyright © 2016 by The Choral Public Domain Library. Edition may be freely distributed, duplicated, performed or recorded.
T:Copyright © 2016 by The Choral Public Domain Library. Edition may be freely distributed, duplicated, performed or recorded.
T:Copyright © 2016 by The Choral Public Domain Library. Edition may be freely distributed, duplicated, performed or recorded.
T:Copyright © 2016 by The Choral Public Domain Library. Edition may be freely distributed, duplicated, performed or recorded.
T:Copyright © 2016 by The Choral Public Domain Library. Edition may be freely distributed, duplicated, performed or recorded.
T:Copyright © 2016 by The Choral Public Domain Library. Edition may be freely distributed, duplicated, performed or recorded.
T:Copyright © 2016 by The Choral Public Domain Library. Edition may be freely distributed, duplicated, performed or recorded.
T:Copyright © 2016 by The Choral Public Domain Library. Edition may be freely distributed, duplicated, performed or recorded.
C:Fux
C:edit BMarble
Z:Copyright © 2016 by The Choral Public Domain Library. Edition may be freely distributed, duplicated, performed or recorded.
%%score [ 1 2 3 4 ]
L:1/8
Q:1/2=88
M:4/2
K:C
V:1 treble nm="Soprano" snm="S."
V:2 treble nm="Alto" snm="A."
V:3 treble-8 transpose=-12 nm="Tenor" snm="T."
V:4 bass nm="Bass" snm="B."
V:1
 z16 | z16 | z16 | z8 z4 A4- | A4 c4 A4 d4- | (d4 c4) _B8 | A6 =B2 c2 B2 A4- | A4 ^G4 A8 | z16 | %9
w: |||Ky-|* ri- e e-|* * lei-|son, e- le- * *|* i- son,||
 z16 | (A8 c6) c2 | B4 e8 d4- | d4 ^c4 d8 | z16 | z8 z4 A4 | _B8 A4 d4 | G4 c8 _B4- | B4 A4 G8 | %18
w: |Ky- * ri-|e, e- le-|* i- son,||e-|lei- son, e-|lei- * *||
 F8 z4 d4- | d4 _B4 B4 G4 | c8 A4 A4- | A4 A4 _B4 B4 |[M:3/1] A24 |[M:4/2] A16 |] d8 A6 =B2 | %25
w: son, Ky-|* ri- e, e-|lei- son, Ky-|* ri- e e-|lei-|son.|Chri- ste e-|
 c2 d2 e8 d4- | d4 ^c4 d4 A4 | d4 =c4 B8- | (B4 A8) ^G4 | A8 z8 | z8 d8 | A4 B4 c8 | _B8 A8 | %33
w: le- * * *|* i- son, Chri-|ste e- le-|* * i-|son,|Chri-|ste e- lei-||
 G8 F8 | z8 z4 c4 | =B4 c4 F4 c4- | c4 B4 c4 G4 | c8- (c6 _B2) | A4 _B4 A8 | G2 A2 _B2 c2 d4 d4 | %40
w: * son,|e-|le- i- son, e-|* lei- son, e-|lei- * *|son, e- lei-|son, _ _ _ _ e-|
 c8 _B8 | A8 G8 | F8 z8 | z16 | A8 D4 E4 | (F8 E8) | D8 z4 d4 | c4 _B4 A8 | G4 (A8 G4) | A6 G2 F8 | %50
w: lei- *||son,||Chri- ste e-|lei- *|son, Chri-|ste e- lei-|son, e- *|lei- * *|
 E16 |] z24 ||[M:4/2][Q:1/2=88] A12 d4 | A4 F4 D4 d4- | d4 c4 !courtesy!_B6 B2 | A4 d8 ^c4 | %56
w: son.||Et in|ter- ra pax, pax|_ ho- mi- ni-|bus, pax ho-|
 f6 e2 d8- | d8 z8 | z8 A6 A2 | G4 A4 F2 G2 A2 B2 | c2 _B2 A6 G2 F4- | F4 E4 F4 A4 | A12 A4 | %63
w: mi- ni- bus|_|bo- nae|vo- lun- ta- * * *||* * tis. Lau-|da- mus|
 A4 A8 A4 | A4 A2 A2 A8 | A4 A4 e8- | (e4 d8) =c4 | B4 B4 c4 (B2 A2) | ^G4 A8 B4- | B4 A8 ^G4 | %70
w: te. Be- ne-|di- ci- mus te.|A- do- ra-|* * mus|te. Glo- ri- fi- *|ca- * *|* * mus|
 A16 | z4 A6 A2 A4 | =G6 G2 A4 _B4- | B4 A4 z4 d4- | d4 c4 _B8 | A4 A8 G4 | A8 z4 d4- | d4 c4 _B8 | %78
w: te.|Gra- ti- as|a- gi- mus ti-|* bi pro-|* pter ma-|gnam glo- ri-|am, pro-|* pter ma-|
 A4 G6 G2 F4 | (F4 E4) F8 | z8 z4 A4- | A2 A2 G4 A8 | G8 z4 d4- | d4 A4 c8- | (c4 =B4) c8- | %85
w: gnam glo- ri- am|tu- * am.|Do-|* mi- ne De-|us, Rex|_ coe- le-|* * stis,|
 c8 z4 G4- | G4 E4 F8 | G4 G4 F8 | E8 D8 | z16 | z16 | z16 | z16 | (G8 A6) A2 | _B8 G4 c4 | %95
w: _ De-|* us Pa-|ter o- mni-|po- tens.|||||Do- * mi-|ne De- us|
 c4 A4 F8 | G8 z4 _B4- | B2 _B2 A4 B4 A4 | G8 F4 A4 | A6 GA _B8- | B4 A4 G4 A4 | A4 G4 F8 | E8 z8 | %103
w: A- gnus De-|i, Fi-|* li- us Pa- *|* tris. Qui|tol- * * *|* * lis pec-|ca- ta mun-|di:|
 z16 | z4 A8 F4 | G4 A4 _B8 | A8 z4 A4- | A4 G4 A4 D4 | z4 d8 c4 | d4 e4 f8 | e4 d8 c4- | %111
w: |mi- se-|re- re no-|bis, mi-|* se- re- re,|mi- se-|re- re no-||
 c4 _B8 A4- | A4 G8 F4 | E8 D8 | z16 | z8 z4 A4 | A8 D4 d4 | d4 c4 _B8 | A4 A4 A2 =B2 c4 | F8 z8 | %120
w: ||* bis.||Qui|tol- lis pec-|ca- ta mun-|di, pec- ca- ta mun-|di:|
 z16 | z16 | z16 | z8 z4 A4- | A4 G4 A4 c4- | c4 =B4 G4 A4 | B8 A4 B4- | B4 A8 ^G4 | A8 z4 A4 | %129
w: |||su-|* sci- pe de-|* pre- ca- ti-|o- nem nos-||tram. Qui|
 (A8 _B8) | A8 F4 c4- | c2 c2 _B4 A2 G2 A4- | A2 =B2 c4 F4 G4 | A12 G4 | F8 E8 | z16 | z8 z4 A4- | %137
w: se- *|des ad dex-|* te- ram Pa- * *|||* tris:||mi-|
 A4 F4 G4 A4 | _B8 A8 | z4 A8 G4 | A4 D4 z4 d4- | d4 c4 d4 e4 | f8 e4 d4- | d4 c8 _B4- | %144
w: * se- re- re|no- bis,|mi- se-|re- re, mi-|* se- re- re|no- * *||
 B4 A8 G4- | G4 F4 E8 | D16 || z4 F8 F4 | F8 z8 | z8 z4 F4 | _B4 A4 d4 c4- | c4 _B8 A4- | %152
w: ||bis.|Quo- ni-|am|Tu|so- lus San- *||
 A4 =B4 c8 | z16 | z16 | z4 F4 G4 A4 | _B4 G4 A8 | z4 _B4 c8 | F4 _B4 B4 A4 | _B4 c8 d4 | _B8 A8 | %161
w: * * ctus.|||Tu so- lus|Do- mi- nus,|Tu so-|lus Al- tis- si-|mus, Je- su|Chri- ste,|
 G8 A8 | z8 z4 d4- | d4 _e4 c8 | _B4 B8 A4 | G8 F8 | z16 | z8 z4 A4 | A4 A4 c6 =B2 | A4 e4 e6 d2 | %170
w: Chri- ste,|Je-|* su Chri-|ste, Je- su|Chri- ste,||Cum|San- cto Spi- ri-|tu in glo- ri-|
 c4 c4 c6 B2 | A8 z8 | z8 z4 A4 | A4 A4 _B6 B2 | A4 d4 d6 c2 | _B4 B4 B6 A2 | G8 z8 | %177
w: a, in glo- ri-|a,|cum|San- cto Spi- ri-|tu in glo- ri-|a, in glo- ri-|a,|
 z4 c4 c6 _B2 | A6 G2 F4 _B4 | _B6 A2 (G4 F4) | z8 A4 =B4 | c12 B4- | B4 (A8 ^G4) | A8 z8 | %184
w: in glo- ri-|a, _ _ in|glo- ri- a _|De- i|Pa- tris.|_ A- *|men.|
 z8 z4 A4 | F4 _B4 A4 G4 ||[M:3/1] A24 ||[M:4/2] A16 |][M:4/2][Q:1/2=88] z16 | z8 z4 A4- | %190
w: a-|* * * men,|a-|men.||San-|
 (A4 c8) B4- | B4 d6 c2 A2 B2 | c6 d2 e6 d2 | B2 c2 d6 c2 B4 | c8 z8 | z16 | z16 | z8 (A8 | %198
w: * * ctus,|_ san- * * *|||ctus,|||San-|
 c8) B8 | d12 c4 | B8 A8 | z4 A8 A4 | A8 _B8- | B4 A4 G8- | G4 G4 F8 | z4 F8 F4 | F8 G8 || %207
w: * ctus,|san- *|* ctus.|Do- mi-|nus De-|* us Sa-|* ba- oth.|Do- mi-|nus De-|
[M:3/1] G4 G8 F4 E6 E2 ||[M:4/2] D16 ||[M:3/2][Q:1/2=100] _B4 B4 c4 | d8 d4 | d4 d4 _B4 | %212
w: us, De- us Sa- ba-|oth.|Ple- ni sunt|coe- li,|coe- li et|
 F4 D4 z4 | (F4 _B6) A2 | G4 c6 _B2 | A4 d6 c2 | (_B2 A2) G8 | F8 (A4 | d6) c2 _B4 | _B6 B2 A4 | %220
w: ter- ra|glo- * ri-|a, glo- ri-|a, glo- ri-|a _ tu-|a, glo-|* ri- a,|glo- ri- a|
 (_B4 A8) | A12 | z12 | z12 | z12 | A4 c8- | c4 =B4 c4 | A4 B8 | A4 (A4 ^G4) | A8 A4 | c4 A4 d4 | %231
w: tu- *|a.||||Ho- san-||na in|ex- cel- *|sis, ho-|san- na, ho-|
 B4 G4 c4 | G4 A8 | B8 e4 | d4 A8 | A12- | A12- | A12 |][M:4/2]"^SA"[Q:1/2=92] z16 | z8 A8- | %240
w: san- na in|ex- cel-|sis, in|ex- cel-|sis.|_|||Be-|
 A4 c4 d8 | A4 A4 c2 d2 e4- | e4 d4 c4 A4 | c6 c2 B4 A4- | A4 ^G4 A4 E4- | E4 G4 A8 | %246
w: * ne- di-|ctus qui ve- * *|* * nit in|no- mi- ne Do-|* mi- ni, be-|* ne- di-|
 E4 E4 F2 G2 A2 B2 | c2 A2 d8 c4 | B4 d4 d4 c4 | B4 e8 d4- | d4 ^c2 B2 c6 c2 | d16 || z16 | z16 | %254
w: ctus qui ve- * * *||nit in no- mi-|ne Do- *|* * * * mi-|ni.|||
 z16 | z16 | z16 | z16 | z16 | A16 | G8 A8 | B4 G4 c4 A4 | z4 B4 B4 G4 | B6 c2 d8 | c6 BA G4 A4- | %265
w: |||||Ho-|san- na|in ex- cel- sis,|ho- san- na|in ex- cel-||
 A4 ^G4 A8 | z4 c4 B4 G2 A2 | B2 c2 d2 e2 f4 d4 | e12 e4 | d8- d2 c2 A2 B2 | c4 A4 G8 | z8 A4 F4 | %272
w: * * sis,|ho- san- * *|* * * * * na,|in ex-|cel- * * * *|* * sis,|in ex-|
 c12 B4 | c8 d8 | G8 z8 | z4 c4 B4 G2 A2 | B2 c2 d8 c4 | B8 A4 A4 | F4 D4 z8 | z4 _B4 A4 F2 G2 | %280
w: cel- *||sis,|ho- san- * *||* na, ho-|san- na,|ho- san- * *|
 A2 _B2 c8 B4- | B4 A2 G2 A4 F4 ||[M:3/1] E8 A16 ||[M:4/2] G8 A8 | =B4 G4 (c6 B2) | A16- | A16- | %287
w: ||na, ho-|san- na|in ex- cel- *|sis.|_|
 A16- | A16 |][Q:1/2=72] z8 A8- | A4 D4 _B8 | A4 d4 (d4 c4) | A4 (_B2 c2) (d4 B4) | %293
w: ||A-|* gnus De-|i, qui tol- *|lis pec- * ca- *|
 c4 A4 _B4 A2 G2 | A4 A4 _B8 | A8 z8 | z8 z4 d4 | (d4 c4) A4 _B4 | c12 _B4- | B4 (A8 G4) | A16 | %301
w: ta. pec- ca- * *|* ta mun-|di:|qui|tol- * lis pec-|ca- ta|_ mun- *|di:|
 z16 | z8 z4 A4- | A4 _B4 A4 G4 | (A4 _B4) A8- | A16 | z16 | z16 | z16 | z8 z4 A4- | A4 A4 c8 | %311
w: |mi-|* se- re- re|no- * bis.|_||||A-|* gnus De-|
 A4 B4 (c4 A4) | B4 c4 d8- | d4 c4 (B8 | A8) ^G8 | z16 | z16 | B4 B4 c8 | B4 B8 A4- | %319
w: i, qui tol- *|lis pec- ca-|* ta mun-|* di:|||mi- se- re-|re no- *|
 A4 ^G2 ^F2 G8 | A8 z4 c4- | c4 A4 A8 | F4 F4 F4 G2 A2 | _B8 A4 A4- | A4 G6 F2 F4- | (F4 E4) F8 | %326
w: |bis. A-|* gnus De-|i, qui tol- * *|* lis pec-|* ca- ta mun-|* * di,|
 z8 z4 _B4 | d12 c4 | _B16 | A16 ||[Q:1/2=88] z16 | z16 | z8 A8- | A4 A4 c8 | e8 d8 | c8 B8 | %336
w: pec-|ca- ta|mun-|di:|||do-|* na no-|bis pa-||
 A4 D2 E2 F2 G2 A4- | A2 B2 c8 c4 | B8 A4 B4- |"^cut to editorial (fuller) version" (B4 A8) ^G4 | %340
w: cem, pa- * * * *|* * * cem,|pa- cem, pa-|* * cem,|
 z4 c4 d4 B4 | c8 z8 | z4 e4 d4 B4 | c8 z8 | z4 c4 _B4 G4 | A8 z8 | z4 f8 e4- | e4 d8 c4- | %348
w: pa- * *|cem,|pa- * *|cem,|pa- * *|cem,|do- na|_ no- bis|
 c4 _B8 A4 | G8 F8 | z4 d8 A4 | c4 A4 =B4 e4- | e4 d8 c2 B2 | c16 | B4 c8 B4- | B4 A8 ^G4 | A8 z8 | %357
w: _ pa- cem,|pa- cem,|do- na|no- bis pa- *|||cem, pa- *||cem,|
 z4 e4 d4 B4 | c8 z8 |S c8 _B8 | A8 G8 | (F8 E8) ||[M:3/1] D4 F6 D2 _B4 A8 ||[M:4/2] A16 | %364
w: pa- * *|cem,|do- na|no- bis|pa- *|cem, do- na no- bis|pa-|
 A16!fine! |]"^editoral (fuller) version" (B4 A8) ^G4 | A4 c4 d4 B4 | c8 z8 | z4 e4 d4 B4 | c8 z8 | %370
w: cem.||cem, pa- * *|cem,|pa- * *|cem,|
 z4 c4 _B4 G4 | A8 z8 | z4 f8 e4- | e4 d8 c4- | c4 _B8 A4 | G8 F8 | z4 d8 A4 | c4 A4 =B4 e4- | %378
w: pa- * *|cem,|do- na|_ no- bis|_ pa- cem,|pa- cem,|do- na|no- bis pa- *|
 e4 d8 c2 B2 | c16 | B4 c8 B4- | B4 A8 ^G4 | A8 z8 | z4 e4 d4 B4 | %384
w: ||cem, pa- *||cem,|pa- * *|
S"^return to last six ms." c8 z8 |] %385
w: cem,|
V:2
 z16 | z16 | z16 | D12 C4 | D4 A,4 F8 | E6 F2 G2 D2 G4- | G4 F4 E4 C4 | B,8 A,8 | z16 | z8 (E8 | %10
w: |||Ky- ri-|e e- lei-|son, e- le- * *|* i- son, e-|lei son,||Ky-|
 F6) F2 E4 A4- | (A4 G4) (F8 | E8) D8 | z16 | z16 | z16 | z4 E4 F8 | E2 E2 F8 E4 | F8 z4 F4- | %19
w: * ri- e e-|* * lei-|* son,||||e- lei-|son, e- le- i-|son, Ky-|
 F4 D4 D4 E4- | E4 C4 F4 F4 | E4 ^F4 G2 D2 G4- |[M:3/1] G4 =F4 E16 |[M:4/2] D16 |] z8 z4 D4 | %25
w: * ri- e, Ky-|* ri- e e-|lei- * * * *||son.|Chri-|
 A4 G4 (F8 | E8) F8 | z4 A,4 D8 | C8 B,8 | A,4 E4 A6 G2 | F2 G2 A8 G4 | F4 E2 D2 E4 C4 | %32
w: ste e- lei-|* son,|Chri- ste|e- lei-|son, Chri- ste e-|le- * * i-|son, _ _ _ Chri-|
 D4 E4 F2 E2 F4- | F4 E4 F4 A4 | G4 A4 E4 E4 | F2 G2 A8 G4 | F8 E8 | z4 E4 A6 G2 | ^F4 G8 F4 | %39
w: ste e- le- * *|* i- son, e-|le- i- son, e-|lei- * * *|* son,|e- le- *|* * i-|
 G2 ^F2 G2 A2 _B4 B4- | B4 A8 G4- | G4 F8 E4 | F4 z4 z4 D4 | A4 G4 F8 | E4 E4 F4 E2 D2 | %45
w: son, _ _ _ _ e-|* le- *|* * i-|son, Chri-|ste e- lei-|son, e- le- * *|
 ^C4 D8 C4 | D4 F4 E4 D4 | E2 F2 G8 F4 | E8 D6 E2 | F4 E8 D4- | %50
w: * * i-|son, Chri- ste e-|lei- * * *|* son, _|_ e- le-|
"^(orig:  C# breve)" D4 (^C2 B,2) C8 |] z24 ||[M:4/2] z8 D8- | D4 A4 F4 D4 | A,4 A8 G4 | %55
w: * i- * son.||Et|_ in ter- ra|pax, pax ho-|
 (F8 E6) E2 | D6 E2 F8 | z8 E6 E2 | D4 E4 C4 D4 | E4 D2 C2 D4 F4 | E4 F4 D8 | C16 | z4 F4 F6 F2 | %63
w: mi- * ni-|bus, _ _|bo- nae|vo- lun- ta- *|||tis.|Lau- da- mus|
 E8 z4 F4 | E4 F6 F2 F4 | E8 ^C4 C4 | F4 F4 E8- | E4 E4 E4 F4 | E6 DE F4 F4 | E16 | z4 E6 E2 E4 | %71
w: te. Be-|ne- di- ci- mus|te. A- do-|ra- mus te.|_ Glo- ri- fi-|ca- * * * mus|te.|Gra- ti- as|
 F6 F2 F4 F4- | F4 E4 z4 G4- | G4 F4 z4 z4 | z8 z4 F4- | F4 E4 D6 E2 | F4 E4 D2 E2 F2 G2 | %77
w: a- gi- mus ti-|* bi, ti-|* bi|pro-|* pter ma- *|* gnam glo- * * *|
 A2 F2 A8 G4 | F4 D6 D2 D4 | C8 C8 | z8 z4 F4- | F2 F2 E4 F8 | E8 z4 _B4- | B4 F4 A4 E4 | %84
w: * * * ri-|am, glo- ri- am|tu- am.|Do-|* mi- ne De-|us, Rex|_ coe- le- *|
 F8 E4 E4- | E4 C4 D8 | E8 D2 E2 F4- | F4 E8 D4- | D4 ^C4 D8 | z16 | z16 | z16 | z8 (D8 | %93
w: * stis, De-|* us Pa-|ter o- * *|* * mni-|* po- tens.||||Do-|
 E6) E2 F8 | D4 G4 G4 E4 | C8 D4 F4- | F2 F2 E4 F4 _B,2 C2 | D2 E2 F2 D2 G4 F4- | F4 E4 F4 F4 | %99
w: * mi- ne|De- us A- gnus|De- i, Fi-|* li- us Pa- * *||* * tris. Qui|
 F8 D4 G4 | G4 F4 (E8 | D16) | ^C8 z8 | z16 | z8 z4 D4- | D4 =C4 D4 E4 | F8 E8 | z8 z4 A4- | %108
w: tol- lis pec-|ca- ta mun-||di:||mi-|* se- re- re|no- bis,|mi-|
 A4 F4 G4 A4 | _B8 A8- | A8 G6 G2 | F16 | (D4 E4) ^C4 D4- | D4 ^C4 D8 | z16 | z16 | z4 D4 D8 | %117
w: * se- re- re|no- bis,|_ mi- se-|re-|re _ no- *|* * bis.|||Qui tol-|
 A,4 A4 A4 G4 | F8 E8 | D8 C8 | z16 | z16 | z8 z4 D4- | D4 C4 D4 F4- | F4 E4 C6 D2 | E2 F2 G8 F4 | %126
w: lis pec- ca- ta|mun- *|* di:|||su-|* sci- pe de-|* pre- ca- ti-|o- * * nem|
 D4 E4 F8 | E16 | z4 E4 E4 F2 E2 | F12 E4 | F16 | C4 G6 G2 F4 | E8 D4 E4 | F6 E2 D8 | (^C4 D8) C4 | %135
w: nos- * *|tram.|Qui se- * *||des|ad dex- te- ram|Pa- tris, ad|dex- te- ram|Pa- * tris:|
 z16 | z16 | z4 D8 =C4 | D4 E4 F8 | E8 z8 | z4 A8 F4 | G4 A4 _B8 | A16 | G6 G2 F8- | F8 (D4 E4) | %145
w: ||mi- se-|re- re no-|bis,|mi- se-|re- re no-|bis,|mi- se- re-|* re _|
 ^C4 D8 C4 | D16 || D12 D4 | C4 C4 F4 E4 | A4 G8 F4 | E4 F8 F4 | F16- | F8 E8 | z16 | z4 C4 D4 E4 | %155
w: no- * *|bis.|Quo- ni-|am Tu so- lus|San- * *|ctus, san- ctus,|san-|* ctus.||Tu so- lus|
 F4 D4 E4 F4- | F4 E4 F6 E2 | D8 z8 | z16 | z8 z4 F4 | G8 C4 F4 | F4 E4 F4 A4- | A2 G2 (G8 ^F4) | %163
w: Do- mi- nus, Do-|* * * mi-|nus.||Tu|so- lus Al-|tis- si- mus, Je-|* su Chri- *|
 G8 A8 | G4 D4 E4 F4- | (F4 E4) F4 D4 | D4 D4 F6 E2 | D4 D4 F6 F2 | E8 z4 A,4 | A,4 A,4 C6 B,2 | %170
w: ste, Je-|su, Je- su Chri-|* * ste. Cum|San- cto Spi- ri-|tu in glo- ri-|a, cum|San- cto Spi- ri-|
 A,4 A4 A6 G2 | F8 z4 D4 | D4 D4 F6 E2 | D4 C4 D2 E2 F2 G2 | A6 G2 F8- | F8 z8 | z4 G4 G6 F2 | %177
w: tu in glo- ri-|a, cum|San- cto Spi- ri-|tu in glo- * * *|* ri- a,|_|in glo- ri-|
 E8 z4 F4 | F6 E2 D8- | D8 z8 | D4 E4 F8- | (F4 E4) D4 E4- | E4 E4 E8 | E8 z4 D4 | C4 F4 E4 D4- | %185
w: a, in|glo- ri- a|_|De- i Pa-|* * tris. A-|* men, a-|men, a-|* * men, a-|
 D2 E2 F8 G4- ||[M:3/1] G4 F4 E6 D2 E8 ||[M:4/2] D16 |][M:4/2] z16 | z8 (D8 | F8) E8 | G6 FE F8 | %192
w: |* men, a- * *|men.||San-|* ctus,|san- * * *|
 E4 A6 G2 E2 F2 | G2 F2 D2 E2 F2 E2 F4- | F2 G2 A8 G4- | G4 D2 E2 F2 G2 A4- | A2 G2 F4 E8 | %197
w: ctus, san- * * *||* * * ctus,|_ san- * * * *|* * * ctus,|
 z4 (D8 F4-) | F4 E8 G4- | (G4 F4) E8- | E8 z4 E4- | E4 E4 F8 | F12 F4 | G4 F8 E2 D2 | E4 E4 F8 | %205
w: San- *|* ctus, san-|* * ctus.|_ Do-|* mi- nus|De- us|Sa- * * *|* ba- oth.|
 z4 D8 D4 | D8 D8 ||[M:3/1] E8 (^C4 D8) C4 ||[M:4/2] D16 ||[M:3/2] F4 F4 F4 | F8 F4 | _B4 B4 D4 | %212
w: Do- mi-|nus De-|us Sa- * ba-|oth.|Ple- ni sunt|coe- li,|coe- li et|
 D4 _B,4 z4 | (D4 G6) F2 | E4 A6 G2 | F4 _B6 A2 | (G2 F2) E8 | F4 (C4 F4-) | F2 E2 D4 G4- | %219
w: ter- ra|glo- * ri-|a, glo- ri-|a, glo- ri-|a _ tu-|a, glo- *|* ri- a, glo-|
 G4 G4 F4 | E12 | D12 | z12 | z12 | z8 D4 | F8 E4 | F4 D4 E4 | F8 (E2 D2) | C2 D2 E8 | E12 | %230
w: * ri- a|tu-|a.|||Ho-|san- *|* * na|in ex- *|cel- * *|sis,|
 E4 F4 D4 | G4 E4 C4 | E4 C4 F4 | D4 G4 G4 | (G4 F8) | E8 F4 | E4 E8 | D12 |][M:4/2] D12 F4 | %239
w: ho- san- na,|ho- san- na|in ex- cel-|sis, in ex-|cel- *|sis, in|ex- cel-|sis.|Be- ne-|
 G8 D4 D4 | F2 G2 A8 G4- | G4 F4 E4 C4 | F6 F2 E4 F4- | F2 E2 C4 D6 C2 | B,4 B,4 A,8 | z8 z4 A,4- | %246
w: di- ctus qui|ve- * * *|* * nit in|no- mi- ne Do-||* mi- ni,|Be-|
 A,4 C4 D8 | A,4 B,4 C2 D2 E2 F2 | G4 F4 E4 A4 | A4 G4 F8 | E12 E4 | D16 || z16 | z16 | z16 | z16 | %256
w: * ne- di-|ctus qui ve- * * *|* * nit in|no- mi- ne|Do- mi-|ni.|||||
 z16 | z16 | D16 | C8 D8 | E4 C4 F4 D4 | z4 E4 E4 C4 | E6 F2 G8- | G2 F2 D2 E2 F2 E2 F4- | %264
w: ||Ho-|san- na|in ex- cel- sis,|ho- san- na|in ex- cel-||
 F2 E2 C2 D2 E8 | z4 E4 C4 A,2 B,2 | C2 D2 E2 F2 G8 | G8 z4 F4 | E4 C2 D2 E2 F2 G4- | %269
w: * * * * sis,|ho- san- * *||na, ho-|san- * * * * *|
 G2 F2 D2 E2 F8 | E4 F8 E4 | F16 | E4 C4 F4 F4 | G4 E4 A4 F4 | z4 E4 C4 A,2 B,2 | %275
w: ||na|in ex- cel- sis,|in ex- cel- sis,|ho- san- * *|
 C2 D2 E2 F2 G6 FE | D2 G,2 G2 F2 E6 F2 | G4 G4 E4 C4 | z8 D8- | D8 C8- | C8 D8 | E4 C4 F4 D4 || %282
w: ||na, ho- san- na,|Ho-|* san-|* na|in ex- cel- sis,|
[M:3/1] z4 C4 A,4 F,2 G,2 A,2 =B,2 C2 D2 ||[M:4/2] E2 F2 G8 F2 E2 | D4 E8 C4 | F12 F4 | %286
w: ho- san- * * * * * *||na in ex-|cel- sis,|
 E2 A,2 A2 G2 F8 | E16 | D16 |] D12 A,4 | F8 D4 G4 | (G4 F4) D4 E4 | F12 D4 | E4 F8 E2 D2 | %294
w: in ex- cel- * *||sis.|A- gnus|De- i, qui|tol- * lis pec-|ca- *||
 C4 F8 E4 | F4 A4 (A4 G4) | E4 F4 G4 F2 E2 | D4 G4 F8 | E4 A8 G4- | G4 F8 D4 | E8 z4 E4- | %301
w: |ta, qui tol- *|lis pec- ca- * *|* ta mun-|di, pec- ca-|* ta mun-|di: mi-|
 E4 F4 E4 D4 | E2 F2 G8 F2 E2 | F4 D4 E4 G4 | F8 E8 | E8 D8 | z16 | z16 | z8 z4 D4- | D4 D4 F8 | %310
w: * se- re- re|no- * * * *|* bis, mi- se-|re- re|no- bis.|||A-|* gnus De-|
 D8 z4 E4 | (F4 D4) E4 F4 | G4 F2 E2 D4 F4 | E16 | C8 E4 E4 | F8 E4 E4- | E2 D2 D8 C4 | %317
w: i, qui|tol- * lis pec-|ca- * * * ta|mun-|di: mi- se-|re- re, mi-|* se- re- re|
 D4 E2 F2 G6 FE | D4 E8 E4 | E4 E4 E8 | E8 z4 A4- | A4 F4 F8 | D4 D4 D4 E2 F2 | G2 F2 D2 E2 F6 E2 | %324
w: no- * * * * *|bis, mi- se-|re- re no-|bis. A-|* gnus De-|i, qui tol- * *|* * * * lis pec-|
 D4 D4 C8- | C8 C8 | z4 E4 G8- | G2 F2 D2 E2 F4 E4 | D8 D8- | D8 ^C8 || z16 | z16 | z16 | %333
w: ca- ta mun-|* di,|pec- ca-||ta mun-|* di:||||
 z4 A8 E4 | G4 E4 F4 D4 | E4 A8 G4 | F6 E2 D4 F4- | F4 F4 (E6 F2) | G8 (C4 D4) | E16 | %340
w: do- na|no- bis pa- *||* * cem, do-|* na no- *|bis pa- *|cem,|
 z4 (A8 ^G4) | A8 z8 | z4 (A8 ^G4) | A8 z8 | z4 (F8 E4) | F8 z8 | A8 G8 | F8 E8 | D8 C8 | z8 D8- | %350
w: pa- *|cem,|pa- *|cem,|pa- *|cem,|do- na|no- bis|pa- cem,|do-|
 D4 D4 F8 | A8 (G8 | F8) E8- | E4 E6 F2 G4- | G4 G4 F8 | E16- | E8 z8 | z4 (A8 ^G4) | A8 z8 | %359
w: * na no-|bis pa-|* cem,|_ do- na no-|* bis pa-|cem,|_|pa- *|cem,|
 z4 A8 =G4- | G4 F8 E4- | E4 (D8 ^C4) ||[M:3/1] D4 ^C4 D4 E6 D2 D4- ||[M:4/2] D4 ^C2 B,2 C8 | %364
w: do- na|_ no- bis|_ pa- *|cem, do- na no- bis pa-||
 D16 |] E16 | z4 (A8 ^G4) | A4 E4 F4 E4 | E4 (A8 ^G4) | A4 F4 G4 C4 | C4 (F8 E4) | F8 z8 | A8 G8 | %373
w: cem.|cem,|pa- *|cem, pa- * *|cem, pa- *|cem, pa- * *|cem, pa- *|cem,|do- na|
 F8 E8 | D8 C8 | z8 D8- | D4 D4 F8 | A8 (G8 | F8) E8- | E4 E6 F2 G4- | G4 G4 F8 | E16- | %382
w: no- bis|pa- cem,|do-|* na no-|bis pa-|* cem,|_ do- na no-|* bis pa-|cem,|
 E4 E4 F4 E4 | E4 (A8 ^G4) | A4 (F4 G4) C4 |] %385
w: _ pa- * *|cem, pa- *|cem, pa- * cem,|
V:3
 z8 A8- | A4 c4 A4 d4- | (d4 c4) _B8 | A4 A4 G4 E4 | F4 E4 D2 E2 F2 G2 | A8 G4 G4 | d8 A8 | %7
w: Ky-|* ri- e e-|* * lei-|son, e- le- i-|son, e- lei- * * *|* son. e-|lei- son,|
 z8 (A8 | c6) c2 B4 e4- | e4 d8 ^c4 | d4 A6 B2 =c2 d2 | e8 z8 | z4 A4 _B8 | A4 d4 G4 c4- | %14
w: Ky-|* ri- e, e-|* lei- *|* son, _ _ _|_|e- lei-|son, e- lei- *|
 c4 _B4 A8 | G8 F4 F4 | (E4 A8) F4 | c8 z4 c4- | c4 A4 A4 F4 | _B8 G4 E4 | A8 F2 G2 A2 B2 | %21
w: |* son, e-|le- * i-|son, Ky-|* ri- e, e-|lei- son, e-|lei- son, _ _ _|
 c8 d4 e4 |[M:3/1] ^c2 c2 d8 c2 B2 c8 |[M:4/2] d16 |] z16 | z16 | A8 D6 E2 | F2 G2 A8 ^G4 | %28
w: _ Ky- ri-|e e- lei- * * *|son.|||Chri- ste e-|le- * * i-|
 A4 F4 D4 E4 | A8 z4 A4 | d4 c4 B6 c2 | d4 c2 B2 A8 | G4 G4 F2 G2 A2 !courtesy!_B2 | c8 F4 f4 | %34
w: son, e- le- i-|son, Chri-|ste e- lei- *||son, e- lei- * * *|* son, e-|
 e4 f4 c4 A4 | d4 c4 d4 e4 | d8 c8- | c8 z4 A4 | d16 | G16 | z4 F4 G4 E4 | F2 G2 A2 B2 c8 | %42
w: le- i- son, e-|lei- * * *|* son,|_ e-|lei-|son,|e- le- i-|son, _ _ _ _|
 z4 d4 A4 B4 | c2 d2 e8 d4- | d4 c4 _B8 | A16 | z4 d4 c4 _B4 | A4 G4 D4 d4- | (d4 c4) _B8 | A16- | %50
w: Chri- ste e-|lei- * * *||son,|Chri- ste e-|le- i- son, e-|* * lei-|son.|
 A16 |] A2 (G2 F2) F2 F2 G2 A2 G2 (_B2 A2) A4 ||[M:4/2] z16 | z16 | z16 | z8 A8- | A4 d4 A4 F4 | %57
w: _|Glo- ri- * a in ex- cel- sis De- * o.||||Et|_ in ter- ra|
 D4 d8 c4 | =B6 B2 A8 | z8 A6 A2 | A4 A4 _B4 A4 | G8 A8 | z4 d4 d6 d2 | ^c8 z4 d4 | e4 d6 d2 d4 | %65
w: pax, pax ho-|mi- ni- bus,|bo- nae|vo- lun- ta- *|* tis.|Lau- da- mus|te. Be-|ne- di- ci- mus|
 ^c8 A4 A4 | d4 d4 A4 A4 | A4 ^G4 A4 B4 | c6 Bc d2 A2 d4- | d4 c4 B4 B4 | A16 | z4 c6 c2 c4 | %72
w: te. A- do-|ra- mus te. Glo-|ri- fi- ca- *||* * * mus|te.|Gra- ti- as|
 c6 c2 e4 d4- | d4 d4 z4 _B4- | B4 A4 G4 F4 | z8 z4 d4- | d4 c4 _B8 | A4 f2 e2 d6 d2 | %78
w: a- gi- mus ti-|* bi pro-|* pter ma- gnam,|pro-|* pter ma-|gnam glo- * * ri-|
 (d6 c2) _B6 A2 | G8 A4 A4- | A2 A2 G4 (A6 =B2) | c8 z4 c4- | c4 G4 _B6 c2 | d8 A4 A4- | A4 F4 G8 | %85
w: am _ tu- *|* am. Do-|* mi- ne De- *|us, Rex|_ coe- le- *|* stis, De-|* us Pa-|
 A4 A4 F4 _B4 | A16 | z16 | z8 _B6 B2 | A4 d8 c4 | f4 e4 d6 c2 | _B8 c8 | A4 (c8 =B4) | c8 z8 | %94
w: ter o- mni- po-|tens.||Do- mi-|ne Fi- li|u- ni- ge- ni-|te Je-|su Chri- *|ste.|
 z16 | z16 | z16 | z8 z4 F4 | c8 c4 A4 | d16- | (d8 _B4) c4 | (F4 G4) A8 | z4 A8 F4 | G4 A4 _B8 | %104
w: |||Qui|tol- lis pec-|ca-|* * ta|mun- * di:|mi- se-|re- re no-|
 A6 G2 F4 G2 A2 | _B4 F4 z8 | z4 d8 c4 | d4 e4 f6 e2 | d6 c2 _B4 A4 | G8 d4 c4- | c4 A4 _B4 c4 | %111
w: |* bis.|mi- se-|re- re no- *||* bis, mi-|* se- re- re|
 d8 c8 | _B8 A8 | z4 A4 A8 | D4 d4 d4 c4 | _B8 A4 c4 | (d6 c2) _B4 B4 | f6 e2 d4 (_B2 c2) | d8 A8 | %119
w: no- *|* bis.|Qui tol-|lis pec- ca- ta|mun- di, qui|tol- * lis pec-|ca- * * ta *|mun- di:|
 z4 A8 G4 | A4 c8 =B4 | G4 E2 F2 G2 A2 B2 c2 | d4 c2 B2 A4 A4 | G6 A2 _B4 F2 G2 | %124
w: su- sci-|pe de- pre-|ca- * * * * * *|* * * * ti-|o- * * * *|
 A2 B2 c2 d2 e4 A4 | z4 e8 d4 | =B4 c4 d4 d4 | (c8 B8) | A8 z4 c4 | d12 _B4 | c8 A8 | z8 A4 d4- | %132
w: * * * * * nem,|de- pre-|ca- ti- o- nem|nos- *|tram. Qui|se- *|* des|ad dex-|
 d2 d2 c4 _B8 | A2 G2 F8 G4 | A8 z4 A4- | A4 F4 G4 A4 | _B8 A6 G2 | F4 G2 A2 _B4 F4 | z8 z4 d4- | %139
w: * te- ram Pa-||tris: mi-|* se- re- re|no- * *|* * * * bis,|mi-|
 d4 c4 d4 e4 | f6 e2 d6 c2 | _B4 A4 G8 | d4 c8 A4 | _B4 c4 d8 | c8 _B8 | A16- | A16 || _B12 B4 | %148
w: * se- re- re|no- * * *||bis, mi- se-|re- re no-||bis.|_|Quo- ni-|
 A8 z8 | z16 | z4 F4 _B4 A4 | d8 c8 | z4 F4 G4 A4 | _B4 G4 A4 B4- | B4 A4 G6 G2 | A8 z8 | %156
w: am||Tu so- lus|San- ctus,|Tu so- lus|Do- mi- nus, Do-|* * * mi-|nus.|
 z4 _B4 c8 | F4 _B4 B4 A4 | _B6 A2 G4 F4- | F4 E2 D2 E4 A4 | G8 A8 | z4 c8 d4 | _B8 A8 | _B8 _e8 | %164
w: Tu so-|lus Al- tis- si-|mus, _ _ Je-|* * * * su|Chri- ste,|Je- su|Chri- ste,|Je- su|
 d8 c8- | c8 z8 | z16 | z4 A4 A4 A4 | c6 =B2 A4 e4 | e6 d2 c4 c4 | c6 B2 A8 | z4 A4 A4 A4 | %172
w: Chri- ste,|_||Cum San- cto|Spi- ri- tu, in|glo- ri- a, in|glo- ri- a,|cum San- cto|
 _B6 B2 A4 A4 | A6 G2 F8 | z4 f4 f6 e2 | d4 d4 d6 c2 | _B8 z4 c4 | c6 _B2 A8 | z4 d4 d6 c2 | %179
w: Spi- ri- tu in|glo- ri- a,|in glo- ri-|a, in glo- ri-|a, in|glo- ri- a,|in glo- ri-|
 _B8 z4 A4 | =B4 (c8 B4) | A4 G6 A2 B2 G2 | c8 B8 | z4 A4 F4 _B4 | A12 A4- | A2 G2 F2 G2 A4 d4 || %186
w: a De-|i Pa- *|tris. A- * * *|* men,|a- * *|men, a-|* * * * * men,|
[M:3/1] ^c4 d8 c2 B2 c8 ||[M:4/2] d16 |][M:4/2] z4 (A8 c4-) | c4 B8 d4- | d4 c2 B2 c4 G4- | %191
w: a- * * * *|men.|San- *|* ctus, san-||
 G2 A2 B2 c2 d8 | A8 z8 | z16 | (A8 c8) | B8 d6 c2 | A2 B2 c8 B4 | A6 G2 F6 G2 | A8 G6 A2 | %199
w: |ctus,||San- *|ctus, san- *|||ctus, san- *|
 B2 c2 d4 G4 A4- | A4 ^G4 A8- | A8 z4 d4- | d2 d2 d4 d4 d4 | c12 c4 | c8 z4 A4- | A4 A4 A8 | %206
w: |* * ctus.|_ Do-|* mi- nus De- us|Sa- ba-|oth. Do-|* mi- nus|
 (A8 _B8) ||[M:3/1] _B8 A12 A4 ||[M:4/2] A16 ||[M:3/2] d4 d4 A4 | _B8 B4 | z12 | f4 f4 d4 | %213
w: De- *|us Sa- ba-|oth.|Ple- ni sunt|coe- li,||coe- li et|
 d4 _B4 (G4 | c6) _B2 A4 | d6 c2 _B4- | B4 c8 | A4 (A4 d4-) | d2 c2 _B4 d4- | d4 ^c4 d4- | d4 ^c8 | %221
w: ter- ra glo-|* ri- a,|glo- ri- a,|_ tu-|a, glo- *|* ri- a, glo-|* ri- a|_ tu-|
 d12 | A4 c8- | c4 =B4 c4 | A4 B6 c2 | d4 c6 B2 | A4 B4 A4 | z4 d4 G4 | (A4 B8) | c12 | z12 | %231
w: a.|Ho- san-||na in ex-|cel- * *|* * sis,|in ex-|cel- *|sis,||
 z8 A4 | c4 A4 d4 | B4 G4 c4 | A4 d8- | d4 ^c4 d4- | d2 d2 ^c8 | d12 |][M:4/2] z16 | z16 | z16 | %241
w: ho-|san- na, ho-|san- na in|ex- cel-|* sis, in|_ ex- cel-|sis.||||
 z16 | z16 | z16 | z16 | z16 | z16 | z16 | z16 | z16 | z16 | z16 || z16 | A16 | G8 A8 | %255
w: ||||||||||||Ho-|san- na|
 B4 G4 c4 A4 | z4 B4 B4 G4 | B6 c2 d4 c4- | c4 !courtesy!_B2 A2 B8 | A4 A4 F2 G2 A2 =B2 | %260
w: in ex- cel- sis,|ho- san- na|in ex- cel- *||sis, ho- san- * * *|
 c2 d2 e4 d4 d4 | G4 c4 A8- | A4 G2 F2 E8 | z8 z4 d4 | A6 B2 c4 c4 | B8 A8 | z4 A4 G4 E2 F2 | %267
w: * * * * na|in ex- cel-|* * * sis,|ho-|san- na in ex-|cel- sis,|ho- san- * *|
 G2 A2 B2 c2 d4 A4 | c12 c4 | B8 A8- | A8 z4 c4 | A4 F2 G2 A2 B2 c2 d2 | e8 A4 d4 | G8 z8 | %274
w: * * * * * na|in ex-|cel- sis,|_ ho-|san- * * * * * *||na,|
 z8 A8- | A8 G8- | G8 A8 | B4 G4 c4 A4 | z4 F4 D6 C2 | D2 E2 F2 G2 A6 _B2 | c2 _B2 A2 G2 F4 G4- | %281
w: Ho-|* san-|* na|in ex- cel- sis,|ho- san- *||* * * * na in|
 G4 E4 D8 ||[M:3/1] A8 z4 d4 c4 A4 ||[M:4/2] z16 | z8 z4 A4 | F4 D2 E2 F2 G2 A2 B2 | %286
w: _ ex- cel-|sis, ho- san- na,||ho-|san- * * * * * *|
 ^c2 d2 e6 d2 d4- | d4 (^c2 B2) c8 | d16 |] z16 | z16 | z8 A8- | A4 D4 _B8 | A4 d4 (d4 c4) | %294
w: * * * na in|_ ex- * cel-|sis.|||A-|* gnus De-|i, qui tol- *|
 A4 d4 _B4 B4 | c8 A4 c4 | (c4 _B4) G4 A4 | _B4 c4 d8 | c4 f4 d8 | c8 d8 | ^c16 | z4 A8 _B4 | %302
w: lis pec- ca- ta|mun- di, qui|tol- * lis pec-|ca- * *|ta, pec- ca-|ta mun-|di:|mi- se-|
 A4 G4 (A4 d4-) | d4 _B4 c4 d4 | ^c4 d4 d4 c2 B2 | ^c8 d8 | z8 z4 A4- | A4 A4 c8 | A4 =B4 (c4 A4) | %309
w: re- re no- *|* bis, mi- se-|re- re no- * *|* bis.|A-|* gnus De-|i, qui tol- *|
 B6 c2 d6 e2 | f8 e4 c4 | (d4 B4) A4 d4 | G4 A4 B4 A4 | ^G4 A8 G4 | A8 B8 | z16 | z16 | z16 | %318
w: lis pec- ca- *|* ta, qui|tol- * lis pec-|ca- * * *|ta mun- *|* di:||||
 B4 B4 c4 c4 | B6 A2 B8 | A4 c8 A4 | A8 F4 A4 | A4 _B2 c2 d8- | d4 _B2 c2 d4 c4 | _B4 B4 (A8 | %325
w: mi- se- re- re|no- * *|bis. A- gnus|De- i, qui|tol- * * *|* * * lis pec-|ca- ta mun-|
 G8) A4 A4 | c8 _B8- | B4 _B4 A4 G2 A2 | _B4 G6 F2 D2 E2 | F8 E8 || z8 z4 d4- | d4 A4 c4 A4 | %332
w: * di, pec-|ca- ta,|_ pec- ca- * *|* ta _ _ _|mun- di:|do-|* na no- bis|
 =B4 e8 d2 e2 | f8 e6 d2 | c8 d8 | A8 z8 | D12 D4 | F8 A8 | G8 F8 | c8 =B8 | z16 | z4 e4 d4 B4 | %342
w: pa- * * *|||cem,|do- na|no- bis|pa- cem,|pa- cem,||pa- * *|
 c8 z8 | z4 c4 _B4 G4 | A8 z8 | z4 c4 _B4 G4 | A4 c4 d4 _B4 | c4 A4 _B4 G4 | A4 F4 G4 F4 | %349
w: cem,|pa- * *|cem,|pa- * *|cem, pa- * *|cem, pa- * *|cem, pa- * *|
 E4 c8 _B2 A2 | _B8 A8 | z16 | z8 A8- | A4 A4 c8 | e8 d8 | c8 =B8 | A4 c4 d4 B4 | c8 z8 | %358
w: cem, pa- * *|* cem,||do-|* na no-|bis pa-||cem, pa- * *|cem,|
 z4 c4 _B4 G4 | A4 c4 d4 _B4 | c8 z8 | z4 F4 G4 E4 ||[M:3/1] F4 A6 G2 G8 F4 ||[M:4/2] E16 | D16 |] %365
w: pa- * *|cem, pa- * *|cem,|pa- * *|cem, do- na no- bis|pa-|cem.|
 (c8 B8) | c4 e4 f4 e4 | c4 c4 d4 B4 | c4 c4 B4 e4 | A4 A4 _B4 G4 | A4 A4 G4 c4 | A4 c4 _B4 G4 | %372
w: pa- *|cem, pa- * *|cem, pa- * *|cem, pa- * *|cem, pa- * *|cem, pa- * *|cem, pa- * *|
 A4 c4 d4 _B4 | c4 A4 _B4 G4 | A4 F4 G4 F4 | E4 c8 _B2 A2 | _B8 A8 | z16 | z8 A8- | A4 A4 c8 | %380
w: cem, pa- * *|cem, pa- * *|cem, pa- * *|cem, pa- * *|* cem,||do-|* na no-|
 e8 d8 | c8 =B8 | A4 c4 d4 B4 | c4 c4 B4 e4 | A4 A4 _B4 G4 |] %385
w: bis pa-||cem, pa- * *|cem, pa- * *|cem, pa- * *|
V:4
 D,12 C,4 | D,4 A,,4 F,8 | E,6 F,2 G,2 D,2 G,4- | G,4 F,4 E,4 A,,4 | D,4 C,4 D,8 | A,,8 z8 | z16 | %7
w: Ky- ri-|e e- lei-|son, e- le- * *|* * * i-|son, e- lei-|son,||
 (E,8 F,6) F,2 | E,4 (A,8 G,4) | F,8 E,4 A,4 | D,2 E,2 F,2 G,2 A,4 A,,4 | z16 | z8 z4 D,4 | %13
w: Ky- * ri-|e e- *|lei- son, e-|lei- * * * * son,||e-|
 F,8 E,4 A,4 | D,4 G,8 F,4- | F,4 E,4 F,4 _B,,4 | (C,8 D,8) | C,16 | F,12 D,4 | _B,,8 z4 C,4- | %20
w: lei- son, e-|le- * *|* i- son, e-|lei- *|son.|Ky- ri-|e, Ky-|
 C,4 A,,4 D,2 E,2 F,2 G,2 | A,8 G,8 |[M:3/1] (A,16 A,,8) |[M:4/2] D,16 |] z16 | z16 | z16 | z16 | %28
w: * ri- e _ _ _|_ e-|lei- *|son.|||||
 z16 | z16 | z16 | z16 | z16 | z16 | z16 | z16 | z16 | z16 | z16 | z16 | z16 | z16 | z16 | z16 | %44
w: ||||||||||||||||
 z16 | z16 | z16 | z16 | z16 | z16 | z16 |] z24 ||[M:4/2] z16 | z16 | z16 | z16 | D,12 A,4 | %57
w: ||||||||||||Et in|
 F,4 D,4 A,,4 A,4 | A,4 ^G,4 A,8 | z8 D,6 D,2 | C,4 D,4 (_B,,8 | C,8) F,8 | z4 D,4 D,6 D,2 | %63
w: ter- ra pax ho-|mi- ni- bus,|bo- nae|vo- lun- ta-|* tis.|Lau- da- mus|
 A,8 z4 D,4 | ^C,4 D,6 D,2 D,4 | A,,8 z8 | z8 A,,4 A,,4 | E,12 D,4 | E,4 A,4 F,4 D,4 | E,12 E,4 | %70
w: te. Be-|ne- di- ci- mus|te.|A- do-|ra- mus|te. Glo- ri- fi-|ca- mus|
 A,,16 | z4 F,6 F,2 F,4 | C,6 C,2 C,4 G,4- | G,4 D,4 z8 | z8 z4 D,4- | D,4 C,4 _B,,8 | %76
w: te.|Gra- ti- as|a- gi- mus ti-|* bi|pro-|* pter ma-|
 A,,8 _B,,2 C,2 D,2 E,2 | F,6 E,F, G,4 G,4 | D,4 _B,,6 B,,2 B,,4 | C,8 F,,4 F,4- | %80
w: gnam glo- * * *|* * * * ri-|am, glo- ri- am|tu- am. Do-|
 F,2 F,2 E,4 F,8 | C,8 z4 F,4 | C,8 G,8 | D,8 C,8 | D,8 C,4 C,4- | C,4 A,,4 _B,,8 | C,8 D,6 C,2 | %87
w: * mi- ne De-|us, Rex|coe- le-||* stis, De-|* us Pa-|ter o- *|
 =B,,4 C,4 D,2 E,2 F,2 G,2 | A,8 z8 | F,6 F,2 E,4 A,4- | A,4 G,4 _B,4 A,4 | G,6 F,2 E,4 F,4- | %92
w: mni- po- tens. _ _ _|_|Do- mi- ne Fi-|* li u- ni-|ge- ni- te Je-|
 F,4 E,4 D,8 | C,8 z8 | z16 | z16 | z16 | z16 | z4 C,4 F,8 | F,4 D,4 G,4 G,,2 A,,2 | %100
w: * su Chri-|ste.|||||Qui tol-|lis pec- ca- * *|
 _B,,2 C,2 D,8 C,4 | _B,,8 A,,8- | A,,8 z4 D,4- | D,4 C,4 D,4 E,4 | F,6 E,2 D,6 C,2 | %105
w: * * * ta|mun- di:|_ mi-|* se- re- re|no- * * *|
 _B,,4 A,,4 G,,6 G,,2 | D,8 A,,4 A,2 G,2 | F,4 E,4 D,8 | z16 | z8 z4 A,4- | A,4 F,4 G,4 A,4 | %111
w: * bis, mi- se-|re- re no- *|* * bis,||mi-|* se- re- re|
 _B,8 F,8 | G,8 A,4 D,4 | A,,8 D,4 D,4 | D,8 A,,4 A,4 | A,4 G,4 F,8- | (F,8 G,8) | F,8 z8 | %118
w: no- *||* bis. Qui|tol- lis pec-|ca- ta mun-||di:|
 z4 D,8 C,4 | D,4 F,8 E,4 | C,4 A,,2 B,,2 C,2 D,2 E,4- | E,4 G,2 F,2 E,4 E,4 | D,4 E,4 (F,8 | %123
w: su- sci-|pe de- pre-|ca- * * * * *|* * * * ti-|o- nem nos-|
 E,8) D,8 | z8 z4 A,4- | A,4 G,4 E,4 F,4 | G,8 D,8 | E,16 | A,,8 z4 A,4 | D,2 E,2 F,2 D,2 G,8 | %130
w: * tram,|de-|* pre- ca- ti-|o- nem|nos-|tram. Qui|se- * * * *|
 F,16 | z16 | A,,4 A,6 A,2 G,4 | F,2 E,2 D,2 C,2 _B,,8 | A,,16 | z4 D,8 C,4 | D,4 E,4 F,6 E,2 | %137
w: des||ad dex- te- ram|Pa- * * * *|tris:|mi- se-|re- re no- *|
 D,6 C,2 _B,,4 A,,4 | G,,4 G,,4 D,8 | A,,4 A,2 G,2 F,4 E,4 | D,8 z8 | z16 | z4 A,8 F,4 | %143
w: * * * bis,|mi- se- re-|re no- * * *|bis,||mi- se-|
 G,4 A,4 _B,8 | F,8 G,8 | A,4 D,4 A,,8 | D,16 || _B,,12 B,,4 | F,8 z4 C,4 | F,4 E,4 A,8 | %150
w: re- re no-|||bis.|Quo- ni-|am Tu|so- lus San-|
 G,4 F,2 E,2 D,4 F,4 | _B,,2 C,2 D,2 E,2 F,6 E,2 | D,8 C,4 C,4 | D,4 E,4 F,4 D,4 | E,4 F,8 E,4 | %155
w: ctus, san- * * *||* ctus. Tu|so- lus Do- mi-|nus, Do- *|
 D,6 D,2 C,4 _B,,2 A,,2 | G,,6 G,,2 F,,8 | z16 | z8 z4 F,4 | G,8 C,4 F,4 | F,4 E,4 F,8 | C,8 F,8 | %162
w: * mi- nus, Do- *|* mi- nus.||Tu|so- lus Al-|tis- si- mus,|Je- su|
 G,8 D,4 D,4 | G,,4 G,8 ^F,4 | G,8 C,8 | C,8 D,8 | z4 D,4 D,4 D,4 | F,6 E,2 D,8 | %168
w: Chri- ste, Je-|su Chri- ste,|Je- su|Chri- ste.|Cum San- cto|Spi- ri- tu,|
 z4 A,,4 A,,4 A,,4 | C,6 B,,2 A,,4 A,4 | A,6 G,2 F,4 F,4 | F,6 E,2 D,8 | z4 D,4 D,4 D,4 | %173
w: cum San- cto|Spi- ri- tu in|glo- ri- a, in|glo- ri- a,|cum San- cto|
 F,6 E,2 D,4 D,4 | F,6 E,2 D,4 _B,4 | _B,6 A,2 G,4 G,4 | G,6 F,2 E,6 D,2 | C,8 z8 | z16 | %179
w: Spi- ri- tu in|glo- ri- a, in|glo- ri- a, in|glo- ri- a _|_||
 z4 D,4 E,4 F,4- | (F,4 E,4) D,8 | C,2 D,2 E,2 F,2 G,4 G,,4 | A,,2 B,,2 C,2 D,2 E,8 | A,,8 z8 | %184
w: De- i Pa-|* * tris.|A- * * * * men,|a- * * * *|men,|
 z4 D,4 C,4 F,4- | F,2 E,2 D,6 C,2 _B,,4 ||[M:3/1] A,,24 ||[M:4/2] D,16 |][M:4/2] (D,8 F,8) | %189
w: a- * *|||men.|San- *|
 E,8 G,4 F,2 E,2 | D,4 A,8 E,4 | z16 | z16 | z8 z4 D,4- | (D,4 F,8) E,4- | E,4 G,4 D,2 E,2 F,4- | %196
w: ctus, san- * *|* * ctus,|||San-|* * ctus,|_ san- * * *|
 F,2 G,2 A,8 G,4 | F,6 E,2 D,8 | A,,8 E,8 | B,,8 C,6 D,2 | E,8 A,,8- | A,,8 D,8 | D,4 D,4 D,8 | %203
w: ||ctus, san-|ctus, san- *|* ctus.|_ Do-|mi- nus De-|
 (E,4 F,4) C,8- | C,4 C,4 F,,8 | z4 D,8 D,4 | D,8 G,,8 ||[M:3/1] G,,8 A,,12 A,,4 ||[M:4/2] D,16 || %209
w: us _ Sa-|* ba- oth.|Do- mi-|nus De-|us Sa- ba-|oth.|
[M:3/2] _B,,4 B,,4 F,4 | _B,8 _B,,4 | z12 | _B,4 B,4 _B,,4 | _B,,4 B,,4 z4 | z12 | z12 | z12 | %217
w: Ple- ni sunt|coe- li,||coe- li et|ter- ra||||
 (F,,4 F,6) E,2 | D,4 G,6 F,2 | E,6 E,2 (F,4 | G,4) (A,4 A,,4) | D,8 D,4 | F,8 E,4 | F,4 D,4 C,4 | %224
w: glo- * ri-|a, glo- *|* ri- a|_ tu- *|a. Ho-|san- *|* na in|
 D,4 G,8 | D,4 A,4 A,4 | (D,4 G,4) C,4 | D,8 E,4 | (F,4 E,8) | A,,12 | z12 | z12 | E,4 F,4 D,4 | %233
w: ex- cel-|sis, in ex-|cel- * sis,|in ex-|cel- *|sis,|||ho- san- na,|
 G,4 E,4 C,4 | (D,6 E,2) (F,2 G,2) | (A,12 | A,,12) | D,12 |][M:4/2] z16 | z16 | z16 | z16 | z16 | %243
w: ho- san- na|in _ ex _|cel-||sis,||||||
 z16 | z16 | z16 | z16 | z16 | z16 | z16 | z16 | z16 || D,16 | C,8 D,8 | E,4 C,4 F,4 D,4 | %255
w: |||||||||Ho-|san- na|in ex- cel- sis,|
 z4 E,4 E,4 C,4 | E,6 F,2 G,8- | G,4 F,2 E,2 D,4 E,4 | F,4 G,8 D,2 E,2 | F,6 E,2 D,4 F,4 | C,8 z8 | %261
w: ho- san- na|in ex- cel-||||sis,|
 z16 | z16 | z4 G,4 D,6 E,2 | F,4 F,4 E,8- | E,8 A,,8 | z16 | z8 z4 D,4 | %268
w: ||ho- san- na|in ex- cel-|* sis,||ho-|
 C,4 A,,2 B,,2 C,2 D,2 E,2 F,2 | G,8 D,8 | z16 | D,16 | C,8 D,8 | E,4 C,4 F,4 D,4 | %274
w: san- * * * * * *|* na,||Ho-|san- na|in ex- cel- sis,|
 z4 C,4 A,,4 F,,2 G,,2 | A,,2 B,,2 C,2 D,2 E,6 D,C, | B,,8 C,4 A,,4 | E,6 D,2 C,4 F,4 | %278
w: ho- san- * *||na in ex-|cel- * * sis,|
 z4 D,4 _B,,4 G,,2 A,,2 | _B,,2 C,2 D,2 E,2 F,8- | F,8 _B,,8 | C,8 z8 || %282
w: ho- san- * *|||na,|
[M:3/1] z4 A,4 F,4 D,2 E,2 F,2 G,2 A,2 =B,2 ||[M:4/2] C4 E,4 F,4 D,4 | G,4 E,4 (A,4 A,,4) | %285
w: ho- san- * * * * * *|* * * na|in ex- cel- *|
 D,4 F,4 D,2 E,2 F,2 G,2 | A,4 ^C,4 D,4 D,4 | (A,8 A,,8) | D,16 |] z16 | z16 | D,12 A,,4 | %292
w: sis, ho- san- * * *|* na in ex-|cel- *|sis.|||A- gnus|
 F,8 D,4 G,4 | (G,4 F,4) D,4 E,4 | F,4 D,4 G,8 | F,4 F,4 (F,4 E,4) | C,4 D,4 E,4 F,4 | %297
w: De- i, qui|tol- * lis pec-|ca- ta mun-|di, qui tol- *|lis pec- ca- *|
 G,4 E,4 F,4 G,4 | A,4 F,4 G,6 F,2 | E,4 F,4 _B,,8 | A,,16 | z16 | z16 | z8 A,4 _B,4 | %304
w: |ta, pec- ca- *|* ta mun-|di:|||mi- se-|
 A,4 G,4 A,8 | A,,8 z4 D,4- | D,4 D,4 F,8 | D,8 z4 E,4 | (F,4 D,4) E,4 F,4 | G,6 F,E, D,6 C,2 | %310
w: re- re no-|bis. A-|* gnus De-|i, qui|tol- * lis pec-|ca- * * * ta|
 D,2 E,2 F,2 G,2 A,4 A,,4 | z16 | z16 | z8 E,4 E,4 | F,8 E,4 E,4- | E,2 D,2 D,8 C,4 | %316
w: mun- * * * * di:|||mi- se-|re- re, mi-|* se- re- re|
 F,8 E,4 A,4- | A,4 (G,2 F,2) E,6 F,2 | G,8 A,8 | E,16 | A,,4 A,8 F,4 | F,8 D,4 F,4 | %322
w: no- bis, mi-|* se- * re- re|no- *||bis. A- gnus|De- i, qui|
 F,4 G,2 A,2 _B,6 A,2 | G,8 D,4 F,4 | _B,,4 B,,4 C,8- | C,8 F,4 F,4 | A,8 G,4 G,4 | %327
w: tol- * * * *|* lis pec-|ca- ta mun-|* di, pec-|ca- ta, pec-|
 G,,2 A,,2 _B,,2 C,2 D,4 E,2 F,2 | G,4 G,4 G,,8 | A,,16 || D,12 D,4 | F,8 A,8 | G,8 F,6 E,2 | %333
w: ca- * * * * * *|* ta mun-|di:|do- na|no- bis|pa- * *|
 D,8 A,8 | z16 | z16 | z8 z4 D,4- | D,4 A,,4 C,4 A,,4 | (=B,,4 E,8) D,4 | (C,6 D,2) E,8 | z16 | %341
w: * cem,|||do-|* na no- bis|pa- * cem,|pa- * cem,||
 z4 (A,8 ^G,4) | A,8 z8 | z4 (F,8 E,4) | F,8 z8 | z4 (F,8 E,4) | F,4 A,4 _B,4 G,4 | %347
w: pa- *|cem,|pa- *|cem,|pa- *|cem, pa- * *|
 A,4 F,4 G,4 E,4 | F,4 D,4 E,4 F,4 | C,8 D,4 E,2 F,2 | G,8 D,8 | z16 | z16 | z4 A,8 E,4 | %354
w: cem, pa- * *|cem, pa- * *|* cem, pa- *|* cem,|||do- na|
 G,4 E,4 F,4 D,4 | E,4 A,4 E,8 | A,,4 (A,8 ^G,4) | A,8 z8 | z4 (F,8 E,4) | F,8 z8 | %360
w: no- bis pa- *||cem, pa- *|cem,|pa- *|cem,|
 z4 A,4 _B,4 G,4 | A,8 z8 ||[M:3/1] z4 A,,4 _B,,4 G,,4 A,,8- ||[M:4/2] A,,16 | D,16 |] %365
w: pa- * *|cem,|pa- * * *||cem.|
 C,6 D,2 E,8 | A,,8 z8 | z4 (A,8 ^G,4) | A,8 z8 | z4 (F,8 E,4) | F,8 z8 | z4 (F,8 E,4) | %372
w: pa- * *|cem,|pa- *|cem,|pa- *|cem,|pa- *|
 F,4 A,4 _B,4 G,4 | A,4 F,4 G,4 E,4 | F,4 D,4 E,4 F,4 | C,8 D,4 E,2 F,2 | G,8 D,8 | z16 | z16 | %379
w: cem, pa- * *|cem, pa- * *|cem, pa- * *|* cem, pa- *|* cem,|||
 z4 A,8 E,4 | G,4 E,4 F,4 D,4 | E,4 A,4 E,8 | A,,4 (A,8 ^G,4) | A,8 z8 | z4 (F,8 E,4) |] %385
w: do- na|no- bis pa- *||cem, pa- *|cem,|pa- *|

